X: 1726
T: Aoife's
R: reel
M: 4/4
K: Amajor
b|gaef edcB|AFED CA,A,b|gaef edcA|EAcA dBBb|
gaef edcB|AFED CA,A,B,|CEAc ecAc|Bded cAA:|
F|~E2 GB {c}d2 BG|ABcd feec|defd cdec|dBcA BAGF|
~E2 GB {c}d2 BG|ABcd feec|defd cde[cf]|1 Bded cAA:|2 ecdB cAA||

